src/assets/2006.svg

<svg width="2696" height="2541" fill="none" xmlns="http://www.w3.org/2000/svg">
  <g filter="url(#filter0_d)">
    <path d="M1710.08 628.385c-43.78-44.217 83.13-139.22-66.04-182.141C1445.01 388.976 420.746.701 420.746.701L25.414 734.17s480.802 586.56 529.093 640.22c48.29 53.67 276.776 284.62 419.14 243.38 142.363-41.25 133.553-48.06 144.683-36.94 11.13 11.12-101.29 119.85-18.87 207.49 82.42 87.65 233.46 94.56 340.86 144.06 107.4 49.49-123.19 455.7 308.23 525.46 431.42 69.76 377.75-301.45 408.55-356.1 30.81-54.65 124.13 28.87 172.41 0 48.29-28.88 41.82-139.53 97.82-180.14 55.99-40.61 73.52-21.34 148.62-46.85 75.09-25.51 109.15-190.19 88.03-228.62-21.13-38.44-80.45-103.54-91.55-125.4-10.9-21.48-15.89-34.92-28.52-68.94l-.69-1.87c-13.15-35.4 16.28-70.38 46.26-133.28 29.97-62.9 84.93-135.93 5.84-206.68s-188.89 22.87-236.16-47.38c-47.27-70.246 7.18-119.741-97.88-164.515-105.05-44.773-306.13 96.433-349 63.299-42.87-33.134 20.42-113.259-9.28-155.95-29.7-42.691-149.14-132.812-192.92-177.029z" fill="#fff"/>
  </g>
  <defs>
    <filter id="filter0_d" x=".414" y=".701" width="2694.73" height="2539.83" filterUnits="userSpaceOnUse" color-interpolation-filters="sRGB">
      <feFlood flood-opacity="0" result="BackgroundImageFix"/>
      <feColorMatrix in="SourceAlpha" values="0 0 0 0 0 0 0 0 0 0 0 0 0 0 0 0 0 0 127 0"/>
      <feOffset dy="49"/>
      <feGaussianBlur stdDeviation="12.5"/>
      <feColorMatrix values="0 0 0 0 0 0 0 0 0 0 0 0 0 0 0 0 0 0 0.25 0"/>
      <feBlend in2="BackgroundImageFix" result="effect1_dropShadow"/>
      <feBlend in="SourceGraphic" in2="effect1_dropShadow" result="shape"/>
    </filter>
  </defs>
</svg>

<svg width="2696" height="2541" viewBox="0 0 2696 2541" fill="none" xmlns="http://www.w3.org/2000/svg">
<g filter="url(#filter0_d)">
<path d="M1710.08 628.385C1666.3 584.168 1793.21 489.165 1644.04 446.244C1445.01 388.976 420.746 0.701172 420.746 0.701172L25.4141 734.17C25.4141 734.17 506.216 1320.73 554.507 1374.39C602.797 1428.06 831.283 1659.01 973.647 1617.77C1116.01 1576.52 1107.2 1569.71 1118.33 1580.83C1129.46 1591.95 1017.04 1700.68 1099.46 1788.32C1181.88 1875.97 1332.92 1882.88 1440.32 1932.38C1547.72 1981.87 1317.13 2388.08 1748.55 2457.84C2179.97 2527.6 2126.3 2156.39 2157.1 2101.74C2187.91 2047.09 2281.23 2130.61 2329.51 2101.74C2377.8 2072.86 2371.33 1962.21 2427.33 1921.6C2483.32 1880.99 2500.85 1900.26 2575.95 1874.75C2651.04 1849.24 2685.1 1684.56 2663.98 1646.13C2642.85 1607.69 2583.53 1542.59 2572.43 1520.73C2561.53 1499.25 2556.54 1485.81 2543.91 1451.79L2543.22 1449.92C2530.07 1414.52 2559.5 1379.54 2589.48 1316.64C2619.45 1253.74 2674.41 1180.71 2595.32 1109.96C2516.23 1039.21 2406.43 1132.83 2359.16 1062.58C2311.89 992.334 2366.34 942.839 2261.28 898.065C2156.23 853.292 1955.15 994.498 1912.28 961.364C1869.41 928.23 1932.7 848.105 1903 805.414C1873.3 762.723 1753.86 672.602 1710.08 628.385Z" fill="white"/>
</g>
<defs>
<filter id="filter0_d" x="0.414062" y="0.701172" width="2694.73" height="2539.83" filterUnits="userSpaceOnUse" color-interpolation-filters="sRGB">
<feFlood flood-opacity="0" result="BackgroundImageFix"/>
<feColorMatrix in="SourceAlpha" type="matrix" values="0 0 0 0 0 0 0 0 0 0 0 0 0 0 0 0 0 0 127 0"/>
<feOffset dy="49"/>
<feGaussianBlur stdDeviation="12.5"/>
<feColorMatrix type="matrix" values="0 0 0 0 0 0 0 0 0 0 0 0 0 0 0 0 0 0 0.25 0"/>
<feBlend mode="normal" in2="BackgroundImageFix" result="effect1_dropShadow"/>
<feBlend mode="normal" in="SourceGraphic" in2="effect1_dropShadow" result="shape"/>
</filter>
</defs>
</svg>
